remix/Media/skip-forward-mini-line.svg

<svg viewBox="0 0 24 24" fill="currentColor" xmlns="http://www.w3.org/2000/svg"><path d="M12.0319 12L9 9.85984V14.1402L12.0319 12ZM7.5 17.535C7.22386 17.535 7 17.3112 7 17.035V6.96496C7 6.8617 7.03197 6.76098 7.09152 6.67662C7.25076 6.45102 7.56274 6.39723 7.78834 6.55648L14.9213 11.5915C14.9679 11.6244 15.0086 11.665 15.0415 11.7117C15.2007 11.9373 15.1469 12.2492 14.9213 12.4085L7.78834 17.4435C7.70398 17.5031 7.60326 17.535 7.5 17.535ZM16 7C16 6.44772 16.4477 6 17 6C17.5523 6 18 6.44772 18 7V17C18 17.5523 17.5523 18 17 18C16.4477 18 16 17.5523 16 17V7Z"/></svg>

<svg viewBox="0 0 24 24" xmlns="http://www.w3.org/2000/svg"><path fill="none" d="M0 0h24v24H0Z"/><path d="M12.032 12L9 9.86v4.28L12.032 12ZM7.5 17.535v0c-.28 0-.5-.23-.5-.5V6.965v0c-.01-.28.22-.51.49-.51 .1-.01.2.03.28.09l7.13 5.03v0c.22.15.27.47.11.69 -.04.04-.08.08-.12.11L7.75 17.41v0c-.09.05-.19.09-.29.09ZM16 7v0c0-.56.44-1 1-1 .55 0 1 .44 1 1v10 0c0 .55-.45 1-1 1 -.56 0-1-.45-1-1V7Z"/></svg>
